X:1
T:Bucaramanga, 77.77.87
T:Bucaramanga, 77.77.87
T:Frank M. Davis, 1892
T:Public Domain Courtesy of the Cyber Hymnal™
C:Frank M. Davis, 1892
Z:Public Domain
Z:Courtesy of the Cyber Hymnal™
%%score ( 1 2 ) ( 3 4 )
L:1/8
Q:1/4=115
M:4/4
K:A
V:1 treble 
V:2 treble 
V:3 bass 
V:4 bass 
V:1
 [CE]2 | [CE]2 [DF]2 [DG]2 [CA]2 | [CA]2 [B,G]2 z2 [DE]2 | [DE]2 [DF]2 [DG]2 [DB]2 | %4
 [DB]2 [CA]2 z2 [CE]2 | [CE]2 [DF]2 [DG]2 [CA]2 | [CA]2 [B,G]2 z2 [B,G]2 | %7
 [EG]2 [^DF]2 [DA]2 [B,D]2 | [B,F]2 [B,E]2 z2 ||[M:3/4] [CE]2 | [CE]4 [CA]2 | [Ec]4 [=Ge]2 | %12
 [=Ge]4 [Fd]2 | [Fd]4 [DF]2 | !>![CE]2 !>![CB]2 [EA]2 | ([EG]2 !fermata![Ac]2) [EB]2 | A6- | %17
 [EA]4 |] %18
V:2
 x2 | x8 | x8 | x8 | x8 | x8 | x8 | x8 | x6 ||[M:3/4] x2 | x6 | x6 | x6 | x6 | x6 | x6 | E2 C2 F2 | %17
 x4 |] %18
V:3
 [A,,A,]2 | [A,,A,]2 [A,,A,]2 [A,,A,]2 [A,,E,]2 | E,2 E,2 z2 [E,G,]2 | %3
 [E,G,]2 [E,G,]2 [E,B,]2 [E,G,]2 | [A,,A,]2 [A,,A,]2 z2 [A,,A,]2 | %5
 [A,,A,]2 [A,,A,]2 [A,,A,]2 [A,,E,]2 | E,2 E,2 z2 E,2 | [B,,B,]2 [B,,B,]2 [B,,B,]2 [B,,A,]2 | %8
 [E,A,]2 [E,G,]2 z2 ||[M:3/4] [A,,A,]2 | [A,,A,]4 [A,,A,]2 | [A,,A,]4 [C,A,]2 | [C,A,]4 [D,A,]2 | %13
 [D,A,]4 [D,A,]2 | !>![A,,A,]2 !>![A,,A,]2 [C,A,]2 | (B,2 E2) [E,D]2 | C2 A,2 D2 | [A,,C]4 |] %18
V:4
 x2 | x8 | E,2 E,2 x4 | x8 | x8 | x8 | E,2 E,2 E,2 x2 | x8 | x6 ||[M:3/4] x2 | x6 | x6 | x6 | x6 | %14
 x6 | E,4 x2 | A,,6- | x4 |] %18

